; generated by PrusaSlicer 2.6.0 on 2023-07-29 at 19:27:31 UTC


;
;
; 

; external perimeters extrusion width = 0.45mm
; perimeters extrusion width = 0.45mm
; infill extrusion width = 0.45mm
; solid infill extrusion width = 0.45mm
; top infill extrusion width = 0.40mm
; first layer extrusion width = 0.42mm

; external perimeters extrusion width = 0.45mm
; perimeters extrusion width = 0.45mm
; infill extrusion width = 0.45mm
; solid infill extrusion width = 0.45mm
; top infill extrusion width = 0.40mm
; first layer extrusion width = 0.42mm

M73 P0 R132
M73 Q0 S135
M201 X1000 Y1000 Z200 E5000 ; sets maximum accelerations, mm/sec^2
M203 X200 Y200 Z12 E120 ; sets maximum feedrates, mm / sec
M204 S1250 T1250 ; sets acceleration (S) and retract acceleration (R), mm/sec^2
M205 X8.00 Y8.00 Z0.40 E4.50 ; sets the jerk limits, mm/sec
M205 S0 T0 ; sets the minimum extruding and travel feed rate, mm/sec
;TYPE:Custom
M862.3 P "MK3S" ; printer model check
M862.1 P0.4 ; nozzle diameter check
M115 U3.12.1 ; tell printer latest fw version
G90 ; use absolute coordinates
M83 ; extruder relative mode
M104 S215 ; set extruder temp
M140 S60 ; set bed temp
M190 S60 ; wait for bed temp
M109 S215 ; wait for extruder temp
G28 W ; home all without mesh bed level
G80 ; mesh bed leveling

G1 Z0.2 F720
G1 Y-3 F1000 ; go outside print area
G92 E0
G1 X60 E9 F1000 ; intro line
G1 X100 E12.5 F1000 ; intro line

G92 E0
M221 S95

; Don't change E values below. Excessive value can damage the printer.

M907 E538 ; set extruder motor current
G21 ; set units to millimeters
G90 ; use absolute coordinates
M83 ; use relative distances for extrusion
M900 K0.05 ; Filament gcode LA 1.5
M900 K30 ; Filament gcode LA 1.0
M107
;LAYER_CHANGE
;Z:0.2
;HEIGHT:0.2
;BEFORE_LAYER_CHANGE
G92 E0.0
;0.2


G1 E-.8 F2100
G1 Z.4 F720
;AFTER_LAYER_CHANGE
;0.2
G1 X50.688 Y69.197 F10800
G1 Z.2 F720
G1 E.8 F2100
M204 S800
;TYPE:Skirt/Brim
;WIDTH:0.42
G1 F1200
G1 X51.461 Y68.741 E.02814
G1 X126.94 Y41.782 E2.51302
G1 X127.739 Y41.643 E.02543
G1 X197.739 Y41.643 E2.1948
G1 X199.312 Y42.238 E.05273
G1 X200.805 Y43.683 E.06515
G1 X201.648 Y44.759 E.04286
G1 X202.692 Y46.555 E.06514
G1 X203.21 Y47.82 E.04286
G1 X203.727 Y49.833 E.06516
G1 X203.882 Y51.19 E.04282
G1 X203.832 Y53.268 E.06517
G1 X203.549 Y54.82 E.04946
G1 X174.978 Y134.82 E2.66351
G1 X174.525 Y135.589 E.02798
G1 X173.251 Y137.039 E.06052
G1 X171.208 Y138.745 E.08345
G1 X169.225 Y139.903 E.072
G1 X167.341 Y140.667 E.06374
G1 X91.609 Y167.701 E2.52128
G1 X89.368 Y168.201 E.07199
G1 X87.444 Y168.35 E.06051
G1 X85.153 Y168.201 E.07198
G1 X82.912 Y167.701 E.07199
G1 X80.447 Y166.698 E.08344
G1 X78.493 Y165.491 E.07201
G1 X76.749 Y163.998 E.07198
G1 X75.475 Y162.548 E.06052
G1 X75.022 Y161.779 E.02798
G1 X46.451 Y81.779 E2.66351
G1 X46.193 Y80.444 E.04263
G1 X46.098 Y79.08 E.04287
G1 X46.238 Y77.007 E.06515
G1 X46.517 Y75.669 E.04285
G1 X47.207 Y73.734 E.06441
G1 X47.738 Y72.689 E.03675
G1 X48.479 Y71.54 E.04287
G1 X49.833 Y69.965 E.06512
G1 X50.643 Y69.237 E.03415
M204 S1000
; printing object MPR-1.stl id:0 copy 0
;WIPE_START
G1 F8640
G1 X51.461 Y68.741 E-.22089
G1 X53.823 Y67.897 E-.57911
;WIPE_END
G1 Z.6 F720
G1 X52.558 Y71.767 F10800
G1 Z.2 F720
G1 E.8 F2100
M204 S800
;TYPE:Perimeter
;WIDTH:0.419999
G1 F1200
G1 X121.963 Y71.767 E2.17614
G1 X122.411 Y72.162 E.01873
M73 Q0 S134
G1 X123 Y72.787 E.02693
G1 X123.529 Y73.463 E.02691
G1 X123.994 Y74.184 E.0269
G1 X124.391 Y74.946 E.02694
G1 X124.717 Y75.74 E.02691
G1 X124.968 Y76.561 E.02692
G1 X125.144 Y77.402 E.02694
G1 X125.209 Y77.972 E.01799
G1 X125.247 Y78.539 E.01782
G1 X125.26 Y79.113 E.018
G1 X125.199 Y79.97 E.02694
G1 X125.067 Y80.782 E.02579
G1 X96.57 Y160.573 E2.65655
G1 X95.436 Y161.864 E.05388
G1 X94.048 Y163.023 E.0567
G1 X92.498 Y163.954 E.05669
G1 X90.823 Y164.635 E.05669
G1 X89.063 Y165.051 E.0567
G1 X87.261 Y165.19 E.05667
G1 X85.458 Y165.051 E.0567
G1 X83.698 Y164.635 E.0567
G1 X82.024 Y163.954 E.05666
G1 X80.474 Y163.023 E.05669
G1 X79.086 Y161.864 E.0567
G1 X77.951 Y160.573 E.0539
G1 X49.455 Y80.782 E2.65654
G1 X49.322 Y79.97 E.0258
G1 X49.262 Y79.113 E.02694
G1 X49.281 Y78.255 E.02691
G1 X49.378 Y77.402 E.02692
G1 X49.553 Y76.561 E.02693
G1 X49.804 Y75.74 E.02692
G1 X50.13 Y74.946 E.02691
G1 X50.527 Y74.184 E.02694
G1 X50.992 Y73.463 E.0269
G1 X51.521 Y72.787 E.02691
G1 X52.111 Y72.162 E.02695
G1 X52.513 Y71.806 E.01684
M204 S1000
G1 X52.416 Y71.39 F10800
M204 S800
;TYPE:External perimeter
G1 F1200
G1 X122.106 Y71.39 E2.18508
G1 X122.673 Y71.891 E.02372
G1 X123.286 Y72.54 E.02799
G1 X123.837 Y73.244 E.02803
G1 X124.321 Y73.995 E.02801
G1 X124.734 Y74.787 E.02801
G1 X125.073 Y75.613 E.02799
G1 X125.334 Y76.467 E.028
G1 X125.516 Y77.342 E.02802
G1 X125.583 Y77.93 E.01856
G1 X125.624 Y78.531 E.01889
G1 X125.637 Y79.122 E.01853
G1 X125.574 Y80.013 E.02801
G1 X125.434 Y80.877 E.02744
G1 X96.901 Y160.768 E2.65989
G1 X95.7 Y162.135 E.05705
M73 P0 R131
G1 X94.267 Y163.331 E.05852
G1 X92.667 Y164.292 E.05852
G1 X90.938 Y164.995 E.05852
G1 X89.122 Y165.424 E.05851
G1 X87.261 Y165.568 E.05852
G1 X85.4 Y165.424 E.05852
G1 X83.583 Y164.995 E.05854
G1 X81.854 Y164.292 E.05852
G1 X80.254 Y163.331 E.05852
G1 X78.822 Y162.135 E.0585
G1 X77.62 Y160.768 E.05707
G1 X49.088 Y80.877 E2.65988
G1 X48.947 Y80.013 E.02745
G1 X48.885 Y79.122 E.028
G1 X48.904 Y78.229 E.02801
G1 X49.005 Y77.342 E.02799
G1 X49.187 Y76.467 E.02802
G1 X49.449 Y75.613 E.02801
G1 X49.788 Y74.787 E.02799
G1 X50.201 Y73.995 E.02801
G1 X50.685 Y73.244 E.02801
G1 X51.235 Y72.54 E.02801
G1 X51.848 Y71.891 E.02799
G1 X52.371 Y71.429 E.02188
M204 S1000
G1 X52.697 Y71.674 F10800
;WIPE_START
G1 F8640
G1 X55.836 Y71.427 E-.8
;WIPE_END
G1 Z.6 F720
G1 X109.587 Y93.645 F10800
G1 Z.2 F720
G1 E.8 F2100
M204 S800
;TYPE:Perimeter
G1 F1200
G1 X109.02 Y92.936 E.02846
G1 X108.625 Y92.03 E.03099
G1 X108.479 Y91.068 E.03051
G1 X108.474 Y85.965 E.16
G1 X108.586 Y85.072 E.02822
G1 X108.947 Y84.151 E.03102
G1 X109.24 Y83.738 E.01588
G1 X109.584 Y83.298 E.01751
G1 X110.305 Y82.739 E.02861
G1 X111.064 Y82.404 E.02601
G1 X111.353 Y82.305 E.00958
G1 X112.141 Y82.201 E.02492
G1 X113.161 Y82.304 E.03214
G1 X114.089 Y82.666 E.03123
G1 X114.871 Y83.242 E.03045
G1 X115.501 Y84.024 E.03149
G1 X115.897 Y84.929 E.03097
G1 X116.048 Y85.965 E.03283
G1 X116.048 Y90.994 E.15768
G1 X115.935 Y91.888 E.02825
G1 X115.575 Y92.808 E.03098
G1 X114.989 Y93.603 E.03097
G1 X114.217 Y94.22 E.03099
G1 X113.311 Y94.616 E.031
G1 X112.335 Y94.764 E.03095
G1 X111.353 Y94.654 E.03098
G1 X110.722 Y94.414 E.02117
G1 X110.305 Y94.22 E.01442
G1 X109.625 Y93.692 E.02699
M204 S1000
G1 X109.884 Y93.422 F10800
M204 S800
;TYPE:External perimeter
G1 F1200
G1 X109.32 Y92.706 E.02858
G1 X108.973 Y91.886 E.02792
G1 X108.852 Y91.019 E.02745
G1 X108.851 Y85.965 E.15846
G1 X108.96 Y85.121 E.02668
G1 X109.295 Y84.296 E.02792
G1 X109.832 Y83.586 E.02791
G1 X110.534 Y83.039 E.0279
G1 X111.402 Y82.679 E.02946
G1 X112.19 Y82.575 E.02492
G1 X113.117 Y82.679 E.02925
G1 X113.945 Y83.014 E.02801
G1 X114.642 Y83.541 E.0274
G1 X115.202 Y84.253 E.0284
G1 X115.548 Y85.073 E.02791
G1 X115.671 Y85.965 E.02823
G1 X115.671 Y90.994 E.15768
G1 X115.561 Y91.839 E.02672
G1 X115.226 Y92.663 E.02789
G1 X114.69 Y93.374 E.02792
G1 X113.987 Y93.921 E.02793
G1 X113.167 Y94.267 E.02791
G1 X112.285 Y94.39 E.02792
G1 X111.402 Y94.28 E.0279
G1 X110.534 Y93.921 E.02945
G1 X109.931 Y93.458 E.02384
M204 S1000
G1 X109.499 Y93.53 F10800
;WIPE_START
G1 F8640
G1 X109.32 Y92.706 E-.22373
G1 X108.973 Y91.886 E-.2056
G1 X108.852 Y91.019 E-.20213
G1 X108.852 Y90.289 E-.16854
;WIPE_END
G1 Z.6 F720
G1 X104.481 Y80.791 F10800
G1 Z.2 F720
G1 E.8 F2100
M204 S800
;TYPE:Perimeter
G1 F1200
G1 X104.48 Y80.899 E.00339
G1 X103.368 Y83.597 E.0915
G1 X103.048 Y86.031 E.07697
G1 X103.048 Y90.928 E.15354
G1 X103.368 Y93.362 E.07697
G1 X104.288 Y95.583 E.07538
G1 X105.751 Y97.489 E.07534
G1 X107.658 Y98.952 E.07536
G1 X108.669 Y99.371 E.03431
G1 X108.864 Y99.506 E.00744
G1 X108.999 Y99.748 E.00869
G1 X109.002 Y100.028 E.00878
G1 X108.967 Y100.128 E.00332
G1 X91.994 Y137.469 E1.28607
G1 X91.831 Y137.678 E.00831
G1 X91.598 Y137.788 E.00808
G1 X91.298 Y137.771 E.00942
G1 X89.643 Y137.087 E.05615
G1 X87.261 Y136.773 E.07533
G1 X84.878 Y137.087 E.07536
G1 X83.259 Y137.758 E.05495
G1 X83.002 Y137.799 E.00816
G1 X82.722 Y137.701 E.0093
G1 X82.528 Y137.469 E.00948
G1 X65.554 Y100.128 E1.28608
G1 X65.505 Y99.925 E.00655
G1 X65.544 Y99.684 E.00765
G1 X65.709 Y99.457 E.0088
G1 X66.864 Y98.952 E.03952
G1 X68.77 Y97.489 E.07534
G1 X70.233 Y95.583 E.07534
G1 X71.153 Y93.362 E.07538
G1 X71.474 Y90.928 E.07698
G1 X71.474 Y86.031 E.15354
G1 X71.153 Y83.597 E.07698
G1 X70.067 Y80.975 E.08898
G1 X70.024 Y80.752 E.00712
G1 X70.089 Y80.495 E.00831
G1 X70.237 Y80.316 E.00728
G1 X70.492 Y80.201 E.00877
G1 X70.59 Y80.193 E.00308
G1 X103.932 Y80.193 E1.04541
G1 X104.21 Y80.265 E.009
G1 X104.397 Y80.437 E.00797
G1 X104.484 Y80.634 E.00675
G1 X104.482 Y80.731 E.00304
M204 S1000
G1 X104.119 Y80.78 F10800
M204 S800
;TYPE:External perimeter
G1 F1200
G1 X103.001 Y83.498 E.09215
G1 X102.671 Y86.006 E.07931
G1 X102.671 Y90.953 E.15511
G1 X103.001 Y93.461 E.07931
G1 X103.959 Y95.773 E.07847
G1 X105.482 Y97.758 E.07845
G1 X107.468 Y99.282 E.07849
G1 X108.524 Y99.719 E.03583
G1 X108.627 Y99.824 E.00461
G1 X108.624 Y99.972 E.00464
G1 X91.65 Y137.313 E1.28608
G1 X91.541 Y137.413 E.00464
G1 X91.407 Y137.409 E.0042
G1 X89.742 Y136.72 E.0565
G1 X87.261 Y136.393 E.07846
G1 X84.78 Y136.72 E.07846
G1 X83.115 Y137.409 E.0565
G1 X82.981 Y137.413 E.0042
G1 X82.871 Y137.313 E.00466
G1 X65.898 Y99.972 E1.28607
G1 X65.894 Y99.824 E.00464
G1 X65.997 Y99.719 E.00461
G1 X67.054 Y99.282 E.03586
G1 X69.039 Y97.758 E.07847
G1 X70.563 Y95.773 E.07847
G1 X71.521 Y93.461 E.07847
G1 X71.851 Y90.953 E.07931
G1 X71.851 Y86.006 E.15511
G1 X71.521 Y83.498 E.07931
G1 X70.415 Y80.83 E.09056
G1 X70.423 Y80.67 E.00502
G1 X70.526 Y80.581 E.00427
G1 X70.59 Y80.57 E.00204
G1 X103.932 Y80.57 E1.04541
G1 X104.07 Y80.63 E.00472
M73 P1 R131
G1 X104.101 Y80.723 E.00307
M204 S1000
G1 X104.462 Y80.986 F10800
;WIPE_START
G1 F8640
G1 X103.001 Y83.498 E-.68926
G1 X102.938 Y83.973 E-.11074
;WIPE_END
G1 Z.6 F720
G1 X59.592 Y93.648 F10800
G1 Z.2 F720
M73 Q1 S134
G1 E.8 F2100
M204 S800
;TYPE:Perimeter
G1 F1200
G1 X59.02 Y92.936 E.02864
G1 X58.625 Y92.03 E.03099
G1 X58.479 Y91.068 E.03051
G1 X58.474 Y85.965 E.16
G1 X58.586 Y85.072 E.02822
G1 X58.947 Y84.151 E.03102
G1 X59.02 Y84.024 E.00459
G1 X59.533 Y83.356 E.02641
G1 X60.305 Y82.739 E.03099
G1 X61.21 Y82.344 E.03096
G1 X62.141 Y82.201 E.02953
G1 X63.161 Y82.304 E.03214
G1 X64.089 Y82.666 E.03123
G1 X64.884 Y83.252 E.03097
G1 X65.281 Y83.738 E.01968
G1 X65.575 Y84.151 E.0159
G1 X65.897 Y84.929 E.0264
G1 X66.043 Y85.891 E.03051
G1 X66.048 Y86.209 E.00997
G1 X66.048 Y90.994 E.15003
G1 X65.935 Y91.888 E.02825
G1 X65.575 Y92.808 E.03098
G1 X64.989 Y93.603 E.03097
G1 X64.217 Y94.22 E.03099
G1 X63.311 Y94.616 E.031
G1 X62.335 Y94.764 E.03095
G1 X61.54 Y94.679 E.02507
G1 X61.21 Y94.616 E.01053
G1 X60.475 Y94.311 E.02495
G1 X59.629 Y93.695 E.03281
M204 S1000
G1 X59.886 Y93.423 F10800
M204 S800
;TYPE:External perimeter
G1 F1200
G1 X59.32 Y92.706 E.02864
G1 X58.973 Y91.886 E.02792
G1 X58.852 Y91.019 E.02745
G1 X58.851 Y85.965 E.15846
G1 X58.96 Y85.121 E.02668
G1 X59.32 Y84.253 E.02946
G1 X59.832 Y83.586 E.02636
G1 X60.534 Y83.039 E.0279
G1 X61.354 Y82.692 E.02792
G1 X62.19 Y82.575 E.02647
G1 X63.117 Y82.679 E.02925
G1 X63.945 Y83.014 E.02801
G1 X64.655 Y83.551 E.02791
G1 X65.226 Y84.296 E.02943
G1 X65.548 Y85.073 E.02637
G1 X65.669 Y85.941 E.02748
G1 X65.671 Y86.209 E.0084
G1 X65.671 Y90.994 E.15003
G1 X65.561 Y91.839 E.02672
G1 X65.226 Y92.663 E.02789
G1 X64.69 Y93.374 E.02792
G1 X63.987 Y93.921 E.02793
G1 X63.167 Y94.267 E.02791
G1 X62.285 Y94.39 E.02792
G1 X61.354 Y94.267 E.02944
G1 X60.619 Y93.963 E.02494
G1 X59.935 Y93.459 E.02664
M204 S1000
G1 X59.501 Y93.531 F10800
;WIPE_START
G1 F8640
G1 X59.32 Y92.706 E-.22449
G1 X58.973 Y91.886 E-.2056
G1 X58.852 Y91.019 E-.20213
G1 X58.852 Y90.292 E-.16778
;WIPE_END
G1 Z.6 F720
G1 X85.393 Y154.271 F10800
G1 Z.2 F720
G1 E.8 F2100
M204 S800
;TYPE:Perimeter
G1 F1200
G1 X84.637 Y153.708 E.02955
G1 X84.02 Y152.936 E.03099
G1 X83.625 Y152.03 E.03099
G1 X83.474 Y150.994 E.03283
G1 X83.474 Y145.965 E.15768
G1 X83.586 Y145.072 E.02822
G1 X83.858 Y144.366 E.02372
G1 X84.02 Y144.024 E.01187
G1 X84.533 Y143.356 E.02641
G1 X85.305 Y142.739 E.03099
G1 X86.21 Y142.344 E.03096
G1 X87.141 Y142.201 E.02953
G1 X88.161 Y142.304 E.03214
G1 X89.089 Y142.666 E.03123
G1 X89.884 Y143.252 E.03097
G1 X90.501 Y144.024 E.03099
G1 X90.897 Y144.929 E.03097
G1 X91.048 Y145.965 E.03283
G1 X91.048 Y150.994 E.15768
G1 X90.935 Y151.888 E.02825
G1 X90.575 Y152.808 E.03098
G1 X89.989 Y153.603 E.03097
G1 X89.294 Y154.161 E.02795
G1 X89.089 Y154.294 E.00766
G1 X88.311 Y154.616 E.0264
G1 X87.58 Y154.731 E.0232
G1 X87.187 Y154.764 E.01237
G1 X86.353 Y154.654 E.02638
G1 X85.446 Y154.299 E.03054
M204 S1000
G1 X85.598 Y153.954 F10800
M204 S800
;TYPE:External perimeter
G1 F1200
G1 X84.867 Y153.408 E.02861
G1 X84.32 Y152.706 E.0279
G1 X83.973 Y151.886 E.02792
G1 X83.851 Y150.994 E.02823
G1 X83.851 Y145.965 E.15768
G1 X83.96 Y145.121 E.02668
G1 X84.32 Y144.253 E.02946
G1 X84.832 Y143.586 E.02636
G1 X85.534 Y143.039 E.0279
G1 X86.354 Y142.692 E.02792
G1 X87.19 Y142.575 E.02647
G1 X88.117 Y142.679 E.02925
G1 X88.945 Y143.014 E.02801
G1 X89.655 Y143.551 E.02791
G1 X90.202 Y144.253 E.0279
G1 X90.548 Y145.073 E.02791
G1 X90.671 Y145.965 E.02823
G1 X90.671 Y150.994 E.15768
G1 X90.561 Y151.839 E.02672
G1 X90.226 Y152.663 E.02789
G1 X89.69 Y153.374 E.02792
G1 X88.945 Y153.945 E.02943
G1 X88.165 Y154.268 E.02647
G1 X87.236 Y154.39 E.02938
G1 X86.402 Y154.28 E.02638
G1 X85.653 Y153.976 E.02534
M204 S1000
G1 X85.253 Y154.157 F10800
;WIPE_START
G1 F8640
G1 X84.867 Y153.408 E-.22392
G1 X84.32 Y152.706 E-.20549
G1 X83.973 Y151.886 E-.2056
G1 X83.876 Y151.178 E-.16499
;WIPE_END
G1 Z.6 F720
G1 X123.503 Y73.734 F10800
G1 Z.2 F720
G1 E.8 F2100
M204 S800
;TYPE:Solid infill
;WIDTH:0.420995
G1 F1200
G1 X122.17 Y72.402 E.05924
G1 X121.835 Y72.106 E.01405
G1 X121.34 Y72.106 E.01556
G1 X123.823 Y74.589 E.11039
G1 X124.083 Y75.089 E.01772
G1 X124.289 Y75.59 E.01703
G1 X120.805 Y72.106 E.15489
G1 X120.27 Y72.106 E.01682
G1 X124.564 Y76.4 E.19091
G1 X124.639 Y76.646 E.00808
G1 X124.735 Y77.106 E.01477
G1 X119.736 Y72.106 E.22227
G1 X119.201 Y72.106 E.01682
G1 X124.841 Y77.746 E.25075
G1 X124.903 Y78.343 E.01887
G1 X118.666 Y72.106 E.27729
G1 X118.132 Y72.106 E.01679
G1 X124.915 Y78.89 E.30159
G1 X124.899 Y79.408 E.01629
M73 Q1 S133
G1 X117.597 Y72.106 E.32464
G1 X117.062 Y72.106 E.01682
G1 X124.864 Y79.908 E.34687
G1 X124.79 Y80.369 E.01468
G1 X116.528 Y72.106 E.36734
G1 X115.993 Y72.106 E.01682
G1 X124.697 Y80.81 E.38697
G1 X124.556 Y81.204 E.01316
G1 X115.458 Y72.106 E.40449
G1 X114.923 Y72.106 E.01682
G1 X124.415 Y81.598 E.422
G1 X124.275 Y81.992 E.01314
G1 X114.389 Y72.106 E.43952
G1 X113.854 Y72.106 E.01682
G1 X124.134 Y82.386 E.45704
G1 X123.993 Y82.78 E.01316
G1 X113.319 Y72.106 E.47455
G1 X112.785 Y72.106 E.01679
G1 X123.852 Y83.174 E.49205
G1 X123.712 Y83.568 E.01314
G1 X112.25 Y72.106 E.50959
G1 X111.715 Y72.106 E.01682
G1 X123.571 Y83.962 E.5271
G1 X123.43 Y84.356 E.01316
G1 X111.181 Y72.106 E.5446
G1 X110.646 Y72.106 E.01682
G1 X123.29 Y84.75 E.56214
G1 X123.149 Y85.144 E.01316
G1 X110.111 Y72.106 E.57965
G1 X109.577 Y72.106 E.01679
G1 X123.008 Y85.538 E.59715
G1 X122.867 Y85.932 E.01316
G1 X109.042 Y72.106 E.61466
G1 X108.507 Y72.106 E.01682
G1 X122.727 Y86.326 E.6322
G1 X122.586 Y86.72 E.01316
G1 X107.973 Y72.106 E.6497
G1 X107.438 Y72.106 E.01682
G1 X122.445 Y87.113 E.66719
G1 X122.305 Y87.507 E.01314
G1 X106.903 Y72.106 E.68473
G1 X106.369 Y72.106 E.01679
G1 X122.164 Y87.901 E.70223
G1 X122.023 Y88.295 E.01316
M73 P1 R130
G1 X105.834 Y72.106 E.71974
G1 X105.299 Y72.106 E.01682
G1 X121.883 Y88.689 E.73728
G1 X121.742 Y89.083 E.01316
G1 X104.765 Y72.106 E.75478
G1 X104.23 Y72.106 E.01682
G1 X121.601 Y89.477 E.77229
G1 X121.46 Y89.871 E.01316
G1 X116.085 Y84.496 E.23897
