; generated by PrusaSlicer 2.5.0 on 2023-03-07 at 21:12:45 UTC


;
;
; 

; external perimeters extrusion width = 0.45mm
; perimeters extrusion width = 0.45mm
; infill extrusion width = 0.45mm
; solid infill extrusion width = 0.45mm
; top infill extrusion width = 0.40mm
; first layer extrusion width = 0.42mm

M73 P0 R16
M73 Q0 S16
M201 X1000 Y1000 Z200 E5000 ; sets maximum accelerations, mm/sec^2
M203 X200 Y200 Z12 E120 ; sets maximum feedrates, mm / sec
M204 P1250 R1250 T1250 ; sets acceleration (P, T) and retract acceleration (R), mm/sec^2
M205 X8.00 Y8.00 Z0.40 E4.50 ; sets the jerk limits, mm/sec
M205 S0 T0 ; sets the minimum extruding and travel feed rate, mm/sec
M107
;TYPE:Custom
M862.3 P "MK3S" ; printer model check
M862.1 P0.4 ; nozzle diameter check
M115 U3.11.0 ; tell printer latest fw version
G90 ; use absolute coordinates
M83 ; extruder relative mode
M104 S230 ; set extruder temp
M140 S85 ; set bed temp
M190 S85 ; wait for bed temp
M109 S230 ; wait for extruder temp
G28 W ; home all without mesh bed level
G80 ; mesh bed leveling

G1 Z0.2 F720
G1 Y-3 F1000 ; go outside print area
G92 E0
G1 X60 E9 F1000 ; intro line
G1 X100 E12.5 F1000 ; intro line

G92 E0
M221 S95

; Don't change E values below. Excessive value can damage the printer.

M907 E538 ; set extruder motor current
G21 ; set units to millimeters
G90 ; use absolute coordinates
M83 ; use relative distances for extrusion
M900 K0.08 ; Filament gcode LA 1.5
M900 K45 ; Filament gcode LA 1.0
M107
;LAYER_CHANGE
;Z:0.2
;HEIGHT:0.2
;BEFORE_LAYER_CHANGE
G92 E0.0
;0.2


G1 E-1 F2100
G1 Z.2 F720
;AFTER_LAYER_CHANGE
;0.2
G1 Z.4
G1 X117.813 Y98.6 F10800
G1 Z.2 F720
G1 E1 F2100
M204 S800
;TYPE:Skirt/Brim
;WIDTH:0.42
G1 F1200
G1 X118.47 Y97.931 E.0294
G1 X119.95 Y96.809 E.05822
G1 X121.665 Y95.973 E.05983
G1 X123.491 Y95.496 E.05916
G1 X125.351 Y95.383 E.05845
G1 X127.279 Y95.651 E.061
G1 X128.965 Y96.232 E.05593
G1 X130.645 Y97.206 E.06089
G1 X132.09 Y98.493 E.06068
G1 X133.225 Y100.004 E.05923
G1 X133.69 Y100.864 E.03067
G1 X134.07 Y101.781 E.03112
G1 X134.506 Y103.501 E.05563
G1 X134.612 Y105.461 E.06152
G1 X134.36 Y107.238 E.05628
G1 X133.728 Y109.054 E.0603
G1 X132.778 Y110.667 E.05869
G1 X131.541 Y112.06 E.05841
G1 X130.191 Y113.103 E.05349
G1 X128.455 Y113.981 E.061
G1 X126.733 Y114.466 E.05609
G1 X125.656 Y114.601 E.03403
G1 X124.71 Y114.619 E.02965
G1 X122.876 Y114.386 E.05797
G1 X121.086 Y113.792 E.05912
G1 X119.428 Y112.846 E.05987
G1 X118.042 Y111.648 E.05743
G1 X117.353 Y110.842 E.03324
G1 X116.834 Y110.092 E.02862
M73 Q1 S16
G1 X116.032 Y108.49 E.05618
G1 X115.517 Y106.64 E.06019
G1 X115.382 Y104.687 E.06138
G1 X115.623 Y102.836 E.05853
M73 P1 R16
G1 X115.871 Y101.957 E.02863
G1 X116.261 Y100.971 E.03324
G1 X117.141 Y99.446 E.05522
G1 X117.776 Y98.647 E.03199
M204 S1000
G1 X118.071 Y98.881 F10800
M204 S800
G1 F1200
G1 X118.731 Y98.204 E.02966
G1 X120.147 Y97.13 E.05571
G1 X121.792 Y96.328 E.05739
G1 X123.553 Y95.868 E.05704
G1 X125.331 Y95.76 E.05585
G1 X127.196 Y96.019 E.05905
G1 X128.804 Y96.573 E.05333
G1 X130.428 Y97.515 E.05887
G1 X131.813 Y98.749 E.05815
G1 X132.901 Y100.196 E.05677
G1 X133.714 Y101.906 E.05939
G1 X134.132 Y103.553 E.05327
G1 X134.235 Y105.45 E.05955
G1 X133.994 Y107.145 E.0537
G1 X133.384 Y108.9 E.05824
G1 X132.474 Y110.444 E.05619
G1 X131.283 Y111.785 E.05625
G1 X129.993 Y112.782 E.0511
G1 X128.313 Y113.632 E.05905
G1 X126.671 Y114.094 E.05349
G1 X125.635 Y114.225 E.03273
G1 X124.724 Y114.243 E.02858
G1 X122.959 Y114.018 E.05579
G1 X121.244 Y113.449 E.05665
G1 X119.643 Y112.536 E.05778
G1 X118.32 Y111.393 E.05483
G1 X117.15 Y109.886 E.0598
G1 X116.385 Y108.357 E.05361
G1 X115.888 Y106.571 E.05813
G1 X115.759 Y104.698 E.05889
G1 X115.989 Y102.926 E.05603
G1 X116.606 Y101.123 E.05975
G1 X117.445 Y99.669 E.05262
G1 X118.034 Y98.928 E.02968
M204 S1000
G1 X118.328 Y99.161 F10800
M204 S800
G1 F1200
G1 X118.992 Y98.476 E.02991
G1 X120.345 Y97.451 E.0532
G1 X121.92 Y96.682 E.05496
G1 X123.615 Y96.24 E.05492
G1 X125.31 Y96.136 E.05325
G1 X127.114 Y96.387 E.0571
G1 X128.643 Y96.914 E.05073
G1 X130.211 Y97.823 E.05684
G1 X131.535 Y99.004 E.05562
G1 X132.576 Y100.388 E.0543
G1 X133.358 Y102.032 E.05707
G1 X133.759 Y103.605 E.0509
G1 X133.858 Y105.439 E.05759
G1 X133.629 Y107.053 E.05111
G1 X133.011 Y108.807 E.05832
G1 X132.121 Y110.287 E.05414
G1 X131.024 Y111.51 E.0515
G1 X129.796 Y112.46 E.04871
G1 X128.171 Y113.283 E.0571
G1 X126.609 Y113.722 E.05089
G1 X124.737 Y113.866 E.05886
G1 X123.041 Y113.65 E.0536
G1 X121.401 Y113.106 E.05418
G1 X119.858 Y112.226 E.0557
G1 X118.597 Y111.137 E.05223
G1 X117.467 Y109.681 E.05782
G1 X116.738 Y108.225 E.05103
G1 X116.259 Y106.503 E.05606
G1 X116.136 Y104.708 E.0564
G1 X116.356 Y103.015 E.05352
G1 X116.951 Y101.274 E.0577
G1 X117.749 Y99.893 E.05002
G1 X118.291 Y99.208 E.02737
M204 S1000
; printing object FilamentGrommet id:0 copy 0
;WIPE_START
G1 F8640
G1 X118.992 Y98.476 E-.23409
G1 X120.345 Y97.451 E-.3918
G1 X121.606 Y96.836 E-.32411
;WIPE_END
G1 E-.05 F2100
G1 Z.4 F720
G1 X119.687 Y106.406 F10800
G1 Z.2 F720
G1 E1 F2100
M204 S800
;TYPE:Perimeter
;WIDTH:0.419999
G1 F1200
G1 X119.625 Y106.205 E.00659
G1 X119.499 Y105.296 E.02879
G1 X119.499 Y104.697 E.01878
G1 X119.566 Y104.092 E.01909
G1 X119.673 Y103.598 E.01584
G1 X120.023 Y102.64 E.03197
G1 X120.307 Y102.115 E.01871
G1 X120.653 Y101.617 E.01903
G1 X121.314 Y100.907 E.03042
G1 X121.732 Y100.566 E.0169
G1 X122.52 Y100.081 E.02902
G1 X123.069 Y99.841 E.01878
G1 X123.591 Y99.677 E.01717
G1 X124.127 Y99.56 E.0172
G1 X124.703 Y99.502 E.01814
G1 X125.225 Y99.497 E.01637
G1 X125.756 Y99.543 E.0167
G1 X126.352 Y99.66 E.01906
G1 X126.934 Y99.842 E.01913
G1 X127.809 Y100.261 E.03041
G1 X128.263 Y100.561 E.01705
G1 X128.726 Y100.943 E.01882
G1 X129.352 Y101.623 E.02898
G1 X129.693 Y102.115 E.01878
G1 X129.983 Y102.65 E.01908
G1 X130.179 Y103.122 E.01603
G1 X130.435 Y104.103 E.03178
G1 X130.501 Y104.696 E.01871
G1 X130.5 Y105.221 E.01644
G1 X130.437 Y105.742 E.01647
G1 X130.333 Y106.365 E.01979
G1 X130.186 Y106.849 E.01587
G1 X129.812 Y107.664 E.02812
G1 X129.467 Y108.222 E.02056
G1 X129.157 Y108.615 E.01569
G1 X128.73 Y109.054 E.01921
G1 X128.336 Y109.384 E.01613
G1 X127.478 Y109.919 E.03169
G1 X126.932 Y110.159 E.01871
G1 X126.336 Y110.344 E.01956
G1 X125.72 Y110.461 E.01967
G1 X124.669 Y110.496 E.03297
G1 X124.097 Y110.428 E.01807
G1 X123.512 Y110.298 E.01878
G1 X123.009 Y110.134 E.0166
G1 X122.25 Y109.774 E.02632
G1 X121.739 Y109.44 E.01915
G1 X121.269 Y109.053 E.01909
G1 X120.846 Y108.618 E.01903
G1 X120.47 Y108.135 E.01919
G1 X120.139 Y107.592 E.01992
G1 X119.876 Y107.021 E.01974
G1 X119.705 Y106.463 E.01829
M204 S1000
G1 X119.326 Y106.516 F10800
M204 S800
;TYPE:External perimeter
G1 F1200
G1 X119.256 Y106.287 E.00753
G1 X119.122 Y105.322 E.03055
G1 X119.122 Y104.676 E.02024
G1 X119.194 Y104.031 E.02035
G1 X119.31 Y103.493 E.01726
G1 X119.678 Y102.485 E.03365
G1 X119.985 Y101.917 E.02023
G1 X120.359 Y101.38 E.02053
G1 X121.055 Y100.631 E.03207
G1 X121.513 Y100.258 E.01851
G1 X122.345 Y99.746 E.03063
G1 X122.936 Y99.487 E.02024
G1 X123.556 Y99.293 E.02035
G1 X124.07 Y99.187 E.01647
G1 X124.665 Y99.127 E.01874
G1 X125.242 Y99.12 E.01808
G1 X125.808 Y99.169 E.01783
G1 X126.445 Y99.294 E.02034
G1 X127.073 Y99.491 E.02063
G1 X127.995 Y99.932 E.03207
G1 X128.487 Y100.257 E.01848
G1 X128.986 Y100.668 E.02026
G1 X129.647 Y101.387 E.03061
G1 X130.015 Y101.917 E.02024
G1 X130.324 Y102.488 E.02034
G1 X130.537 Y103.002 E.01746
G1 X130.807 Y104.034 E.03346
G1 X130.878 Y104.676 E.02023
G1 X130.877 Y105.337 E.02072
G1 X130.73 Y106.349 E.03207
G1 X130.567 Y106.912 E.01839
G1 X130.376 Y107.384 E.01598
G1 X130.144 Y107.844 E.01614
G1 X129.78 Y108.432 E.0217
G1 X129.44 Y108.865 E.01723
G1 X128.987 Y109.331 E.02039
M73 Q2 S16
G1 X128.557 Y109.69 E.01756
G1 X127.655 Y110.254 E.03336
G1 X127.064 Y110.513 E.02023
G1 X126.428 Y110.711 E.0209
G1 X125.764 Y110.837 E.02119
G1 X124.743 Y110.881 E.03203
G1 X124.191 Y110.831 E.01736
G1 X123.555 Y110.706 E.02034
M73 P2 R16
G1 X123.012 Y110.537 E.01784
G1 X122.517 Y110.335 E.01675
G1 X122.059 Y110.099 E.01615
G1 X121.515 Y109.744 E.02036
G1 X121.013 Y109.331 E.0204
G1 X120.561 Y108.866 E.02033
G1 X120.159 Y108.35 E.02051
G1 X119.806 Y107.77 E.02128
G1 X119.523 Y107.156 E.02122
G1 X119.344 Y106.574 E.01909
M204 S1000
G1 X119.486 Y106.337 F10800
;WIPE_START
G1 F8640
G1 X119.256 Y106.287 E-.06933
G1 X119.122 Y105.322 E-.22498
G1 X119.122 Y104.676 E-.14908
G1 X119.194 Y104.031 E-.14984
G1 X119.31 Y103.493 E-.12709
G1 X119.651 Y102.559 E-.2297
;WIPE_END
G1 E-.05 F2100
G1 Z.4 F720
G1 X128.018 Y104.756 F10800
G1 Z.2 F720
G1 E1 F2100
M204 S800
;TYPE:Perimeter
G1 F1200
G1 X128.027 Y105.219 E.01451
G1 X127.933 Y105.777 E.01774
G1 X127.731 Y106.324 E.01829
G1 X127.436 Y106.81 E.01782
G1 X127.056 Y107.233 E.01782
G1 X126.604 Y107.577 E.01782
G1 X126.096 Y107.831 E.01781
G1 X125.317 Y108.013 E.02507
G1 X124.81 Y108.023 E.0159
G1 X124.211 Y107.926 E.01901
G1 X123.63 Y107.707 E.01947
G1 X122.938 Y107.224 E.02646
G1 X122.542 Y106.781 E.01864
G1 X122.253 Y106.291 E.01782
G1 X122.06 Y105.757 E.01782
G1 X121.971 Y105.195 E.01782
G1 X121.988 Y104.627 E.01782
G1 X122.11 Y104.072 E.01782
G1 X122.334 Y103.549 E.01782
G1 X122.633 Y103.103 E.01684
G1 X123.027 Y102.697 E.01773
G1 X123.519 Y102.351 E.01887
G1 X123.984 Y102.144 E.01596
G1 X124.574 Y101.996 E.01907
G1 X125.16 Y101.969 E.0184
G1 X125.723 Y102.052 E.01782
G1 X126.259 Y102.238 E.01781
G1 X126.833 Y102.601 E.02129
G1 X127.056 Y102.767 E.00872
G1 X127.407 Y103.147 E.01621
G1 X127.683 Y103.581 E.01614
G1 X127.901 Y104.106 E.01782
G1 X128.017 Y104.696 E.01885
M204 S1000
G1 X127.649 Y104.799 F10800
M204 S800
;TYPE:External perimeter
G1 F1200
G1 X127.646 Y105.267 E.01465
G1 X127.536 Y105.791 E.01681
G1 X127.364 Y106.218 E.01441
G1 X127.045 Y106.692 E.01792
G1 X126.65 Y107.075 E.01726
G1 X126.202 Y107.362 E.01669
G1 X125.891 Y107.505 E.01071
G1 X125.213 Y107.65 E.02175
G1 X124.707 Y107.643 E.01589
G1 X124.202 Y107.538 E.01616
G1 X123.732 Y107.338 E.016
G1 X123.161 Y106.92 E.02219
G1 X122.83 Y106.537 E.01589
G1 X122.574 Y106.091 E.01611
G1 X122.411 Y105.612 E.01586
G1 X122.344 Y105.142 E.01489
G1 X122.365 Y104.633 E.01599
G1 X122.483 Y104.138 E.01593
G1 X122.694 Y103.675 E.01598
G1 X122.983 Y103.266 E.01568
G1 X123.342 Y102.921 E.01563
G1 X123.758 Y102.648 E.01561
G1 X124.3 Y102.44 E.01817
G1 X124.865 Y102.353 E.01795
G1 X125.319 Y102.367 E.01422
G1 X125.695 Y102.433 E.01199
G1 X126.169 Y102.612 E.01587
G1 X126.747 Y102.996 E.02175
G1 X127.096 Y103.363 E.01589
G1 X127.371 Y103.793 E.01601
G1 X127.557 Y104.266 E.01593
G1 X127.644 Y104.74 E.0151
M204 S1000
G1 X128.011 Y104.969 F10800
;WIPE_START
G1 F8640
G1 X127.646 Y105.267 E-.12164
G1 X127.536 Y105.791 E-.12376
G1 X127.364 Y106.218 E-.10613
G1 X127.045 Y106.692 E-.13197
G1 X126.65 Y107.075 E-.1271
G1 X126.202 Y107.362 E-.12294
G1 X125.891 Y107.505 E-.07888
G1 X125.309 Y107.63 E-.13759
;WIPE_END
G1 E-.05 F2100
G1 Z.4 F720
G1 X129.651 Y102.274 F10800
G1 Z.2 F720
M73 P2 R15
G1 E1 F2100
M204 S800
;TYPE:Solid infill
;WIDTH:0.429312
G1 F1200
G1 X128.496 Y101.12 E.05246
G1 X128.094 Y100.789 E.01673
G1 X127.669 Y100.508 E.01637
G1 X127.033 Y100.203 E.02265
G1 X129.816 Y102.986 E.12644
G1 X129.91 Y103.213 E.00788
G1 X130.056 Y103.773 E.0186
G1 X126.202 Y99.918 E.17513
G1 X125.716 Y99.824 E.0159
G1 X125.546 Y99.809 E.00549
G1 X130.189 Y104.452 E.21097
G1 X130.218 Y104.712 E.00839
G1 X130.217 Y105.027 E.01012
G1 X124.97 Y99.779 E.23843
G1 X124.458 Y99.814 E.01648
G1 X130.181 Y105.537 E.26004
G1 X130.112 Y106.014 E.01549
G1 X128.195 Y104.098 E.08707
G1 X128.305 Y104.677 E.01894
G1 X128.304 Y104.753 E.00245
G1 X130.011 Y106.46 E.07755
G1 X129.873 Y106.868 E.01385
G1 X128.302 Y105.297 E.07139
G1 X128.221 Y105.763 E.01519
G1 X129.713 Y107.254 E.06778
G1 X129.521 Y107.609 E.01295
G1 X128.089 Y106.177 E.06508
G1 X127.926 Y106.561 E.01339
G1 X129.312 Y107.946 E.06295
G1 X129.079 Y108.26 E.01255
G1 X127.713 Y106.894 E.06206
G1 X127.621 Y107.038 E.00549
G1 X127.471 Y107.198 E.00706
G1 X128.824 Y108.552 E.06151
G1 X128.555 Y108.829 E.01242
G1 X127.205 Y107.479 E.06132
G1 X126.893 Y107.713 E.01254
G1 X128.259 Y109.079 E.06207
G1 X127.934 Y109.301 E.01263
G1 X126.553 Y107.92 E.06277
G1 X126.182 Y108.095 E.01319
G1 X127.598 Y109.511 E.06436
G1 X127.251 Y109.71 E.01286
G1 X125.745 Y108.205 E.06842
G1 X125.292 Y108.298 E.01487
G1 X126.871 Y109.877 E.07175
G1 X126.833 Y109.894 E.00133
G1 X126.458 Y110.01 E.01262
G1 X124.75 Y108.303 E.07759
G1 X124.632 Y108.3 E.0038
G1 X124.086 Y108.185 E.01792
G1 X126.163 Y110.262 E.09437
M204 S1000
;WIPE_START
G1 F8640
G1 X124.086 Y108.185 E-.6782
G1 X124.632 Y108.3 E-.12875
G1 X124.75 Y108.303 E-.02734
G1 X125.105 Y108.657 E-.11572
;WIPE_END
G1 E-.05 F2100
G1 Z.4 F720
G1 X126.197 Y102.099 F10800
G1 Z.2 F720
G1 E1 F2100
M204 S800
G1 F1200
G1 X123.978 Y99.88 E.10082
G1 X123.541 Y99.989 E.01448
M73 Q2 S15
G1 X125.25 Y101.699 E.07768
G1 X125.162 Y101.686 E.00288
G1 X124.703 Y101.699 E.01473
G1 X123.128 Y100.123 E.07158
G1 X122.748 Y100.29 E.01333
G1 X124.24 Y101.782 E.0678
G1 X124.004 Y101.832 E.00775
G1 X123.822 Y101.91 E.00637
G1 X122.399 Y100.487 E.06466
G1 X122.061 Y100.695 E.01276
G1 X123.441 Y102.075 E.06269
G1 X123.107 Y102.288 E.01272
G1 X121.742 Y100.923 E.06202
G1 X121.508 Y101.113 E.0097
G1 X121.449 Y101.176 E.00276
G1 X122.799 Y102.527 E.06136
G1 X122.522 Y102.796 E.01242
G1 X121.186 Y101.459 E.06072
G1 X120.922 Y101.743 E.01242
G1 X122.29 Y103.111 E.06216
G1 X122.075 Y103.441 E.01268
G1 X120.691 Y102.058 E.06286
G1 X120.548 Y102.264 E.00806
G1 X120.479 Y102.392 E.00468
G1 X121.905 Y103.818 E.06481
G1 X121.862 Y103.914 E.00337
G1 X121.784 Y104.243 E.01088
G1 X120.287 Y102.746 E.06802
G1 X120.139 Y103.145 E.01366
M73 Q3 S15
G1 X121.703 Y104.709 E.07104
G1 X121.683 Y105.16 E.01451
G1 X121.696 Y105.248 E.00285
G1 X119.993 Y103.545 E.07736
G1 X119.945 Y103.677 E.00449
M73 P3 R15
G1 X119.88 Y103.979 E.00993
G1 X122.094 Y106.193 E.10061
M204 S1000
;WIPE_START
G1 F8640
G1 X119.88 Y103.979 E-.72309
G1 X119.945 Y103.677 E-.07139
G1 X119.993 Y103.545 E-.03223
G1 X120.371 Y103.923 E-.12329
;WIPE_END
G1 E-.05 F2100
G1 Z.4 F720
G1 X119.657 Y104.302 F10800
G1 Z.2 F720
G1 E1 F2100
M204 S800
G1 F1200
G1 X125.54 Y110.186 E.26733
G1 X125.017 Y110.209 E.01684
G1 X119.782 Y104.974 E.23784
G1 X119.782 Y105.276 E.00971
G1 X119.821 Y105.56 E.0092
G1 X124.454 Y110.192 E.21048
G1 X124.285 Y110.177 E.00545
G1 X123.797 Y110.081 E.01598
G1 X119.922 Y106.206 E.17607
G1 X120.185 Y107.016 E.02735
G1 X122.986 Y109.817 E.12728
G1 X122.739 Y109.712 E.00862
G1 X122.394 Y109.53 E.01254
G1 X121.907 Y109.212 E.0187
G1 X121.497 Y108.874 E.01706
G1 X120.361 Y107.738 E.05162
M204 S1000
; stop printing object FilamentGrommet id:0 copy 0
;LAYER_CHANGE
;Z:0.35
;HEIGHT:0.15
;BEFORE_LAYER_CHANGE
G92 E0.0
;0.35


;WIPE_START
G1 F8640
G1 X121.497 Y108.874 E-.37098
G1 X121.907 Y109.212 E-.1226
G1 X122.394 Y109.53 E-.13438
G1 X122.739 Y109.712 E-.09014
G1 X122.986 Y109.817 E-.06192
G1 X122.465 Y109.297 E-.16998
;WIPE_END
G1 E-.05 F2100
G1 Z.4 F720
;AFTER_LAYER_CHANGE
;0.35
M104 S240 ; set temperature
M140 S90 ; set bed temperature
G1 X120.193 Y113.282 F10800
G1 Z.35 F720
G1 E1 F2100
;TYPE:Skirt/Brim
;WIDTH:0.42
G1 F2142
G1 X119.428 Y112.846 E.0213
G1 X118.042 Y111.648 E.0443
G1 X117.353 Y110.842 E.02564
G1 X116.834 Y110.092 E.02207
G1 X116.032 Y108.49 E.04334
G1 X115.517 Y106.64 E.04643
G1 X115.382 Y104.687 E.04735
G1 X115.623 Y102.836 E.04515
G1 X115.871 Y101.957 E.02209
G1 X116.261 Y100.971 E.02564
G1 X117.141 Y99.446 E.04259
G1 X117.813 Y98.6 E.02613
G1 X118.47 Y97.931 E.02268
G1 X119.95 Y96.809 E.04491
G1 X121.665 Y95.973 E.04615
G1 X123.491 Y95.496 E.04563
G1 X125.351 Y95.383 E.04509
G1 X127.279 Y95.651 E.04706
G1 X128.965 Y96.232 E.04314
G1 X130.645 Y97.206 E.04697
G1 X132.09 Y98.493 E.0468
G1 X133.225 Y100.004 E.04569
G1 X133.69 Y100.864 E.02366
G1 X134.07 Y101.781 E.02401
G1 X134.506 Y103.501 E.04291
G1 X134.612 Y105.461 E.04745
G1 X134.36 Y107.238 E.04341
G1 X133.728 Y109.054 E.04651
G1 X132.778 Y110.667 E.04527
G1 X131.541 Y112.06 E.04505
